X:1
T:Callaghan's Reel [2]
M:C|
L:1/8
R:Reel
Z:AK/Fiddler's Companion
K:G
G3A Bdgd | BABG A~E3 | GBAF GABd | (3efg fa gedB | ~G3A Bdgd |
BABG A~E3 | GBAF GABd | egfa g4 || {a}gfga b2 af | gaba gfed | (3Bcd AB GABd |
e2 af gfed | Gfga b2 af | gaba gfed | (3Bcd AB GABd | (3efg af gedB ||

